X:68
T:Lark in the Morning, The
C:Traditional
R:jig
M:6/8
K:D
AFA AFA | BGB BdB | AFA Ade | fed BdB |
AFA AFA | BGB BdB | def afe | fdB BdB :|
|: def a3 | baf afe | def afe | fdB BdB |
def a3 | baf afd | g3 fgf | edB BdB :|
|: d2f fef | fef fef | d2f fef | edB BdB |
d2f fef | fef fef | g3 fgf | edB BdB :|
|: Add fdd | ede fdB | Add fdd | edB BdB |
Add fdd | ede fef | g3 fgf | edB BdB :|

%%newpage
%%scale .7
%%staffsep 30

